X:44
T:score136
L:1/8
Q:1/4=96
M:4/4
I:linebreak $
K:C
 c'3 g eceg | c'3 g eceg | c'2 c2 B2 c2 |$ .d2 d2 ^c2 d2 | .e2 e2 ^d2 e2 | f2 g2 a2 b2 |$ %6
 c'2 .c' z .b z.a z | g3 f e2 e/f/g/e/ | a2 .a z .g z.f z |$ e3 d c2 z2 |] %10
